_site/img/ipad-air2.svg

<svg xmlns="http://www.w3.org/2000/svg" viewBox="0 0 348 512" enable-background="new 0 0 348 512"><style type="text/css">.st0{opacity:0.2;} .st1{fill:#E9D19C;} .st2{fill:#333333;} .st3{fill:#6A5944;} .st4{fill:#F7EBDE;} .st5{fill:#F5F6F8;} .st6{fill:#666666;} .st7{fill:#4D4D4D;} .st8{fill:#4C7070;} .st9{fill:#474747;} .st10{fill:none;}</style><path d="M28.8 510.1c-14.5 0-26.3-11.8-26.3-26.3v-447c0-14.5 11.8-26.3 26.3-26.3h284.8c14.5 0 26.3 11.8 26.3 26.3v446.9c0 14.5-11.8 26.3-26.3 26.3h-284.8zm284.8-498.4c13.9 0 25.1 11.2 25.1 25.1v446.9c0 13.9-11.2 25.1-25.1 25.1h-284.8c-13.9 0-25.1-11.2-25.1-25.1v-446.9c0-13.9 11.2-25.1 25.1-25.1h284.8m0-2.5h-284.8c-15.2 0-27.6 12.4-27.6 27.6v446.9c0 15.2 12.4 27.6 27.6 27.6h284.8c15.2 0 27.6-12.4 27.6-27.6v-446.9c0-15.2-12.4-27.6-27.6-27.6z" class="st0"/><path class="st1" d="M35.1 502.6c-14.5 0-26.3-11.8-26.3-26.3v-447c0-14.5 11.8-26.3 26.3-26.3h284.8c14.5 0 26.3 11.8 26.3 26.3v446.9c0 14.5-11.8 26.3-26.3 26.3h-284.8z"/><path class="st2" d="M319.9 4.2c13.9 0 25.1 11.2 25.1 25.1v446.9c0 13.9-11.2 25.1-25.1 25.1h-284.8c-13.9 0-25.1-11.2-25.1-25.1v-446.9c0-13.9 11.2-25.1 25.1-25.1h284.8m0-2.5h-284.8c-15.2 0-27.6 12.4-27.6 27.6v446.9c0 15.2 12.4 27.6 27.6 27.6h284.8c15.2 0 27.6-12.4 27.6-27.6v-446.9c0-15.2-12.4-27.6-27.6-27.6z"/><path class="st3" d="M345 476.2v-45.6l-293.1-426.4h-16.8c-13.9 0-25.1 11.2-25.1 25.1v23.9l308 448.1h1.9c13.8 0 25.1-11.2 25.1-25.1z"/><path class="st4" d="M338.9 492.6c2.6-3.1 4.6-6.8 5.5-10.9l-324.7-472.2c-2.9 2.3-5.4 5.2-7.1 8.6l326.3 474.5z"/><path class="st3" d="M10 476.2v-45.6l293.1-426.4h16.8c13.9 0 25.1 11.2 25.1 25.1v23.9l-308 448.1h-1.9c-13.9 0-25.1-11.2-25.1-25.1z"/><path class="st4" d="M16.1 492.6c-2.6-3.1-4.6-6.8-5.5-10.9l324.6-472.2c2.9 2.3 5.4 5.2 7.1 8.6l-326.2 474.5z"/><path class="st5" d="M35.1 497.6c-11.8 0-21.3-9.6-21.3-21.3v-447c0-11.8 9.5-21.3 21.3-21.3h284.8c11.8 0 21.3 9.6 21.3 21.3v446.9c0 11.8-9.6 21.3-21.3 21.3h-284.8z"/><path class="st6" d="M319.9 8.6c11.4 0 20.7 9.3 20.7 20.7v446.9c0 11.4-9.3 20.7-20.7 20.7h-284.8c-11.4 0-20.7-9.3-20.7-20.7v-446.9c0-11.4 9.3-20.7 20.7-20.7h284.8m0-1.3h-284.8c-12.1 0-22 9.9-22 22v446.9c0 12.1 9.9 22 22 22h284.8c12.1 0 22-9.9 22-22v-446.9c-.1-12.1-9.9-22-22-22z"/><path class="st7" d="M326.4 453.8h-298.5c-.7 0-1.3-.6-1.3-1.3v-398.7c0-.7.6-1.3 1.3-1.3h298.4c.7 0 1.3.6 1.3 1.3v398.8c0 .6-.6 1.2-1.2 1.2z"/><circle class="st3" cx="177.5" cy="478.9" r="13.1"/><path class="st1" d="M167.4 487.3l22.3-3.5c.6-1.5 1-3.2 1-4.9 0-2.1-.5-4.1-1.4-5.9-7.6 2.6-19.2 6.6-24.6 8.3.3 2.3 1.3 4.3 2.7 6z"/><circle class="st5" cx="177.5" cy="478.9" r="11.3"/><circle class="st8" cx="177.1" cy="30.6" r="2.2"/><path class="st9" d="M177.1 29.2c.7 0 1.3.6 1.3 1.3s-.6 1.3-1.3 1.3c-.7 0-1.3-.6-1.3-1.3s.6-1.3 1.3-1.3m0-1.7c-1.7 0-3.1 1.4-3.1 3.1s1.4 3.1 3.1 3.1 3.1-1.4 3.1-3.1-1.3-3.1-3.1-3.1z"/><circle class="st9" cx="167.3" cy="30.8" r="1.4"/><path id="Content" class="st10" d="M28 54h298v398h-298z"/></svg>

<svg xmlns="http://www.w3.org/2000/svg" viewBox="0 0 348 512"><style>.st0{opacity:.2}.st1{fill:#e9d19c}.st2{fill:#333}.st3{fill:#6a5944}.st4{fill:#f7ebde}.st5{fill:#f5f6f8}.st6{fill:#666}.st7{fill:#4d4d4d}.st8{fill:#4c7070}.st9{fill:#474747}.st10{fill:none}</style><path d="M28.8 510.1c-14.5 0-26.3-11.8-26.3-26.3v-447c0-14.5 11.8-26.3 26.3-26.3h284.8c14.5 0 26.3 11.8 26.3 26.3v446.9c0 14.5-11.8 26.3-26.3 26.3H28.8zM313.6 11.7c13.9 0 25.1 11.2 25.1 25.1v446.9c0 13.9-11.2 25.1-25.1 25.1H28.8c-13.9 0-25.1-11.2-25.1-25.1V36.8c0-13.9 11.2-25.1 25.1-25.1h284.8m0-2.5H28.8C13.6 9.2 1.2 21.6 1.2 36.8v446.9c0 15.2 12.4 27.6 27.6 27.6h284.8c15.2 0 27.6-12.4 27.6-27.6V36.8c0-15.2-12.4-27.6-27.6-27.6z" class="st0"/><path class="st1" d="M35.1 502.6c-14.5 0-26.3-11.8-26.3-26.3v-447C8.8 14.8 20.6 3 35.1 3h284.8c14.5 0 26.3 11.8 26.3 26.3v446.9c0 14.5-11.8 26.3-26.3 26.3H35.1z"/><path class="st2" d="M319.9 4.2c13.9 0 25.1 11.2 25.1 25.1v446.9c0 13.9-11.2 25.1-25.1 25.1H35.1c-13.9 0-25.1-11.2-25.1-25.1V29.3C10 15.4 21.2 4.2 35.1 4.2h284.8m0-2.5H35.1C19.9 1.7 7.5 14.1 7.5 29.3v446.9c0 15.2 12.4 27.6 27.6 27.6h284.8c15.2 0 27.6-12.4 27.6-27.6V29.3c0-15.2-12.4-27.6-27.6-27.6z"/><path class="st3" d="M345 476.2v-45.6L51.9 4.2H35.1C21.2 4.2 10 15.4 10 29.3v23.9l308 448.1h1.9c13.8 0 25.1-11.2 25.1-25.1z"/><path class="st4" d="M338.9 492.6c2.6-3.1 4.6-6.8 5.5-10.9L19.7 9.5c-2.9 2.3-5.4 5.2-7.1 8.6l326.3 474.5z"/><path class="st3" d="M10 476.2v-45.6L303.1 4.2h16.8c13.9 0 25.1 11.2 25.1 25.1v23.9L37 501.3h-1.9c-13.9 0-25.1-11.2-25.1-25.1z"/><path class="st4" d="M16.1 492.6c-2.6-3.1-4.6-6.8-5.5-10.9L335.2 9.5c2.9 2.3 5.4 5.2 7.1 8.6L16.1 492.6z"/><path class="st5" d="M35.1 497.6c-11.8 0-21.3-9.6-21.3-21.3v-447C13.8 17.5 23.3 8 35.1 8h284.8c11.8 0 21.3 9.6 21.3 21.3v446.9c0 11.8-9.6 21.3-21.3 21.3H35.1z"/><path class="st6" d="M319.9 8.6c11.4 0 20.7 9.3 20.7 20.7v446.9c0 11.4-9.3 20.7-20.7 20.7H35.1c-11.4 0-20.7-9.3-20.7-20.7V29.3c0-11.4 9.3-20.7 20.7-20.7h284.8m0-1.3H35.1c-12.1 0-22 9.9-22 22v446.9c0 12.1 9.9 22 22 22h284.8c12.1 0 22-9.9 22-22V29.3c-.1-12.1-9.9-22-22-22z"/><path class="st7" d="M326.4 453.8H27.9c-.7 0-1.3-.6-1.3-1.3V53.8c0-.7.6-1.3 1.3-1.3h298.4c.7 0 1.3.6 1.3 1.3v398.8c0 .6-.6 1.2-1.2 1.2z"/><circle class="st3" cx="177.5" cy="478.9" r="13.1"/><path class="st1" d="M167.4 487.3l22.3-3.5c.6-1.5 1-3.2 1-4.9 0-2.1-.5-4.1-1.4-5.9-7.6 2.6-19.2 6.6-24.6 8.3.3 2.3 1.3 4.3 2.7 6z"/><circle class="st5" cx="177.5" cy="478.9" r="11.3"/><circle class="st8" cx="177.1" cy="30.6" r="2.2"/><path class="st9" d="M177.1 29.2c.7 0 1.3.6 1.3 1.3s-.6 1.3-1.3 1.3c-.7 0-1.3-.6-1.3-1.3s.6-1.3 1.3-1.3m0-1.7c-1.7 0-3.1 1.4-3.1 3.1s1.4 3.1 3.1 3.1 3.1-1.4 3.1-3.1-1.3-3.1-3.1-3.1z"/><circle class="st9" cx="167.3" cy="30.8" r="1.4"/><path id="Content" class="st10" d="M28 54h298v398H28z"/></svg>
